src/assets/icons/loader.svg

<?xml version="1.0" encoding="UTF-8"?>
<svg width="254px" height="254px" viewBox="0 0 254 254" version="1.1" xmlns="http://www.w3.org/2000/svg" xmlns:xlink="http://www.w3.org/1999/xlink">
    <!-- Generator: Sketch 52.2 (67145) - http://www.bohemiancoding.com/sketch -->
    <title>loader</title>
    <desc>Created with Sketch.</desc>
    <defs>
        <path d="M24.75,4.5 C24.75,3.25735931 25.7573593,2.25 27,2.25 C28.2426407,2.25 29.25,3.25735931 29.25,4.5 L29.25,13.5 C29.25,14.7426407 28.2426407,15.75 27,15.75 C25.7573593,15.75 24.75,14.7426407 24.75,13.5 L24.75,4.5 Z M24.75,40.5 C24.75,39.2573593 25.7573593,38.25 27,38.25 C28.2426407,38.25 29.25,39.2573593 29.25,40.5 L29.25,49.5 C29.25,50.7426407 28.2426407,51.75 27,51.75 C25.7573593,51.75 24.75,50.7426407 24.75,49.5 L24.75,40.5 Z M9.50150974,12.6834903 C8.62283009,11.8048106 8.62283009,10.3801894 9.50150974,9.50150974 C10.3801894,8.62283009 11.8048106,8.62283009 12.6834903,9.50150974 L19.0509903,15.8690097 C19.9296699,16.7476894 19.9296699,18.1723106 19.0509903,19.0509903 C18.1723106,19.9296699 16.7476894,19.9296699 15.8690097,19.0509903 L9.50150974,12.6834903 Z M34.9490097,38.1309903 C34.0703301,37.2523106 34.0703301,35.8276894 34.9490097,34.9490097 C35.8276894,34.0703301 37.2523106,34.0703301 38.1309903,34.9490097 L44.4984903,41.3165097 C45.3771699,42.1951894 45.3771699,43.6198106 44.4984903,44.4984903 C43.6198106,45.3771699 42.1951894,45.3771699 41.3165097,44.4984903 L34.9490097,38.1309903 Z M4.5,29.25 C3.25735931,29.25 2.25,28.2426407 2.25,27 C2.25,25.7573593 3.25735931,24.75 4.5,24.75 L13.5,24.75 C14.7426407,24.75 15.75,25.7573593 15.75,27 C15.75,28.2426407 14.7426407,29.25 13.5,29.25 L4.5,29.25 Z M40.5,29.25 C39.2573593,29.25 38.25,28.2426407 38.25,27 C38.25,25.7573593 39.2573593,24.75 40.5,24.75 L49.5,24.75 C50.7426407,24.75 51.75,25.7573593 51.75,27 C51.75,28.2426407 50.7426407,29.25 49.5,29.25 L40.5,29.25 Z M12.6834903,44.4984903 C11.8048106,45.3771699 10.3801894,45.3771699 9.50150974,44.4984903 C8.62283009,43.6198106 8.62283009,42.1951894 9.50150974,41.3165097 L15.8690097,34.9490097 C16.7476894,34.0703301 18.1723106,34.0703301 19.0509903,34.9490097 C19.9296699,35.8276894 19.9296699,37.2523106 19.0509903,38.1309903 L12.6834903,44.4984903 Z M38.1309903,19.0509903 C37.2523106,19.9296699 35.8276894,19.9296699 34.9490097,19.0509903 C34.0703301,18.1723106 34.0703301,16.7476894 34.9490097,15.8690097 L41.3165097,9.50150974 C42.1951894,8.62283009 43.6198106,8.62283009 44.4984903,9.50150974 C45.3771699,10.3801894 45.3771699,11.8048106 44.4984903,12.6834903 L38.1309903,19.0509903 Z" id="path-1"></path>
    </defs>
    <g id="Token-Migration" stroke="none" stroke-width="1" fill="none" fill-rule="evenodd">
        <g id="04.5-Prepare-Transaction-Meta-Mask-Transaction-Loading" transform="translate(-593.000000, -238.000000)">
            <rect fill="#EDF3F7" x="0" y="0" width="1440" height="800"></rect>
            <g id="Group-4" transform="translate(270.000000, 150.000000)">
                <g id="loader" transform="translate(423.000000, 188.000000)">
                    <mask id="mask-2" fill="white">
                        <use xlink:href="#path-1"></use>
                    </mask>
                    <use id="Combined-Shape" fill="#000000" fill-rule="nonzero" xlink:href="#path-1"></use>
                    <g id="COLOR/-black" mask="url(#mask-2)" fill="#000000" fill-rule="evenodd">
                        <rect id="Rectangle" x="0" y="0" width="54" height="54"></rect>
                    </g>
                </g>
            </g>
        </g>
    </g>
</svg>

<svg width="254" height="254" xmlns="http://www.w3.org/2000/svg" xmlns:xlink="http://www.w3.org/1999/xlink"><defs><path d="M24.75 4.5a2.25 2.25 0 1 1 4.5 0v9a2.25 2.25 0 1 1-4.5 0v-9zm0 36a2.25 2.25 0 1 1 4.5 0v9a2.25 2.25 0 1 1-4.5 0v-9zM9.502 12.683a2.25 2.25 0 0 1 3.181-3.181l6.368 6.367a2.25 2.25 0 0 1-3.182 3.182l-6.367-6.368zm25.447 25.448a2.25 2.25 0 0 1 3.182-3.182l6.367 6.368a2.25 2.25 0 0 1-3.181 3.181l-6.368-6.367zM4.5 29.25a2.25 2.25 0 1 1 0-4.5h9a2.25 2.25 0 1 1 0 4.5h-9zm36 0a2.25 2.25 0 1 1 0-4.5h9a2.25 2.25 0 1 1 0 4.5h-9zM12.683 44.498a2.25 2.25 0 0 1-3.181-3.181l6.367-6.368a2.25 2.25 0 0 1 3.182 3.182l-6.368 6.367zm25.448-25.447a2.25 2.25 0 0 1-3.182-3.182l6.368-6.367a2.25 2.25 0 0 1 3.181 3.181l-6.367 6.368z" id="a"/></defs><g fill="none" fill-rule="evenodd"><path fill="#EDF3F7" d="M-593-238H847v800H-593z"/><g transform="translate(100 100)"><mask id="b" fill="#fff"><use xlink:href="#a"/></mask><use fill="#000" fill-rule="nonzero" xlink:href="#a"/><g mask="url(#b)" fill="#000"><path d="M0 0h54v54H0z"/></g></g></g></svg>
